src/assets/images/ranks/solo_platinum_3.svg

<svg height="240" viewBox="0 0 160 240" width="160" xmlns="http://www.w3.org/2000/svg"><g fill="none" fill-rule="evenodd"><g transform="translate(26 43)"><g fill="#396989"><path d="m25 120h58v55.440402l-29-17.680228-29 17.680228z"/><path d="m3 11.2148438c12-7.47656255 28.8333333-11.2148438 50.5-11.2148438s38.5 3.73828125 50.5 11.2148438l-10 43h-81z"/><path d="m0 37.5c13.3289037-11.6666667 31.3289037-17.5 54-17.5s40.6710963 5.8333333 54 17.5c-1.622646 36.1488106-1.622646 64.482144 0 85-12.8002544 16.78317-39.2525183 30.119909-55.0182857 30.119909-15.7657675 0-40.8610985-13.783951-52.9817143-30.119909 1.84841053-20.815998 1.84841053-49.1493311 0-85z"/></g><path d="m7 41.8347266c11.4567096-10.5564844 26.9284078-15.8347266 46.4150943-15.8347266 19.4866866 0 34.9583847 5.2782422 46.4150944 15.8347266-1.394727 32.7089448-1.394727 58.3461214 0 76.9115294-11.0023151 15.186109-33.7390618 27.253744-47.2903504 27.253744s-35.1216989-12.472291-45.5398383-27.253744c1.58878054-18.8351792 1.58878054-44.4723556 0-76.9115294z" fill="#000" opacity=".446382"/><path d="m53.6704906 152.356241c-1.8696825-4.137201-3.1651205-7.818104-3.886314-11.042709-.7612599-3.403749-1.2569467-7.595312-1.4870606-12.574688-5.933609-3.323519-11.7128586-8.927425-17.3377488-16.811721-5.6248902-7.884295-9.9446793-22.8567255-12.9593672-44.9172922 3.3941786-.8069369 5.9190252-1.4427853 7.5745399-1.9075452 1.6555146-.4647599 3.9254193-1.1749631 6.809714-2.1306096.1366497-1.2686518-.0558648-2.1820346-.5775437-2.7401483-.5216789-.5581138-1.7377077-1.1516494-3.6480866-1.7806068v-2.2035957c2.9755954-1.2173057 5.5491236-2.0859999 7.7205847-2.6060826 2.171461-.5200826 6.0541205-1.1976981 11.6479782-2.0328464v-3.997997c-1.8681078-.7401955-3.9612581-.9898721-6.2794511-.7490299-2.318193.2408421-5.6252582 1.3104955-9.9211955 3.2089601l-1.6009981-4.3262678c1.4054405-1.2171661 3.4566626-2.2623115 6.1536665-3.1354361 2.6970038-.8731246 7.3319932-1.6904771 13.9049683-2.4520577.4430154-2.3986451.7838833-4.762638 1.0226038-7.0919785.2387204-2.3293406.434025-7.2396982.5859138-14.7310729-1.3590642-1.5473641-2.1709204-2.7325582-2.4355686-3.555582s.0110354-1.3644981.827051-1.624423c-.2588252-.8999565-.0743599-1.5854237.5533958-2.0564015.6277558-.4709778 1.8443721-.8366811 3.649849-1.0971099 1.8054769.2604288 3.0220932.6261321 3.6498489 1.0971099.6277558.4709778.8122211 1.156445.5533959 2.0564015.8160155.2599249 1.0916992.8013992.827051 1.624423s-1.0765045 2.0082179-2.4355686 3.555582c.1518887 7.4913747.3471933 12.4017323.5859138 14.7310729.2387205 2.3293405.5795884 4.6933334 1.0226038 7.0919785 6.572975.7615806 11.2079645 1.5789331 13.9049683 2.4520577s4.748226 1.91827 6.1536665 3.1354361l-1.6009981 4.3262678c-4.2959374-1.8984646-7.6030026-2.968118-9.9211955-3.2089601-2.318193-.2408422-4.4113434.0088344-6.2794512.7490299v3.997997c5.5938578.8351483 9.4765172 1.5127638 11.6479783 2.0328464 2.1714611.5200827 4.7449893 1.3887769 7.7205846 2.6060826v2.2035957c-1.9103788.6289574-3.1264077 1.222493-3.6480865 1.7806068-.5216789.5581137-.7141935 1.4714965-.5775437 2.7401483 2.8842947.9556465 5.1541993 1.6658497 6.809714 2.1306096 1.6555146.4647599 4.1803613 1.1006083 7.5745399 1.9075452-3.014688 22.0605667-7.334477 37.0329972-12.9593672 44.9172922-5.6248902 7.884296-11.4041398 13.488202-17.3377489 16.811721-.2301138 4.979376-.7258007 9.170939-1.4870605 12.574688-.7612598 3.40375-2.1623414 7.315906-4.2032448 11.736468z" fill="#e8f7fa"/></g><g fill="#e8f7fa" transform="translate(31 3)"><path d="m83.8080495 12 15 21-15 21-15-21z"/><path d="m49.4040248 0 15 21-15 21-15-21z"/><path d="m15 12 15 21-15 21-15-21z"/></g></g></svg>

<?xml version="1.0" encoding="UTF-8"?>
<svg width="160px" height="240px" viewBox="0 0 160 240" version="1.1" xmlns="http://www.w3.org/2000/svg" xmlns:xlink="http://www.w3.org/1999/xlink">
    <title>solo_platinum_3</title>
    <g id="solo_platinum_3" stroke="none" stroke-width="1" fill="none" fill-rule="evenodd">
        <g id="Group-7" transform="translate(26.000000, 43.000000)">
            <polygon id="Rectangle-Copy-70" fill="#396989" points="25 120 83 120 83 175.440402 54 157.760174 25 175.440402"></polygon>
            <path d="M3,11.2148438 C15,3.73828125 31.8333333,0 53.5,0 C75.1666667,0 92,3.73828125 104,11.2148438 L94,54.2148438 L13,54.2148438 L3,11.2148438 Z" id="Rectangle-Copy-76" fill="#396989"></path>
            <path d="M0,37.5 C13.3289037,25.8333333 31.3289037,20 54,20 C76.6710963,20 94.6710963,25.8333333 108,37.5 C106.377354,73.6488106 106.377354,101.982144 108,122.5 C95.1997456,139.28317 68.7474817,152.619909 52.9817143,152.619909 C37.2159468,152.619909 12.1206158,138.835958 0,122.5 C1.84841053,101.684002 1.84841053,73.3506689 0,37.5 Z" id="Rectangle-Copy-81" fill="#396989"></path>
            <path d="M7,41.8347266 C18.4567096,31.2782422 33.9284078,26 53.4150943,26 C72.9017809,26 88.373479,31.2782422 99.8301887,41.8347266 C98.4354617,74.5436714 98.4354617,100.180848 99.8301887,118.746256 C88.8278736,133.932365 66.0911269,146 52.5398383,146 C38.9885497,146 17.4181394,133.527709 7,118.746256 C8.58878054,99.9110768 8.58878054,74.2739004 7,41.8347266 Z" id="Rectangle-Copy-82" fill="#000000" opacity="0.446382068"></path>
            <path d="M53.6704906,152.356241 C51.8008081,148.21904 50.5053701,144.538137 49.7841766,141.313532 C49.0229167,137.909783 48.5272299,133.71822 48.297116,128.738844 C42.363507,125.415325 36.5842574,119.811419 30.9593672,111.927123 C25.334477,104.042828 21.0146879,89.0703975 18,67.0098308 C21.3941786,66.2028939 23.9190252,65.5670455 25.5745399,65.1022856 C27.2300545,64.6375257 29.4999592,63.9273225 32.3842539,62.971676 C32.5209036,61.7030242 32.3283891,60.7896414 31.8067102,60.2315277 C31.2850313,59.6734139 30.0690025,59.0798783 28.1586236,58.4509209 L28.1586236,56.2473252 C31.134219,55.0300195 33.7077472,54.1613253 35.8792083,53.6412426 C38.0506693,53.12116 41.9333288,52.4435445 47.5271865,51.6083962 L47.5271865,47.6103992 C45.6590787,46.8702037 43.5659284,46.6205271 41.2477354,46.8613693 C38.9295424,47.1022114 35.6224772,48.1718648 31.3265399,50.0703294 L29.7255418,45.7440616 C31.1309823,44.5268955 33.1822044,43.4817501 35.8792083,42.6086255 C38.5762121,41.7355009 43.2112015,40.9181484 49.7841766,40.1565678 C50.227192,37.7579227 50.5680599,35.3939298 50.8067804,33.0645893 C51.0455008,30.7352487 51.2408054,25.8248911 51.3926942,18.3335164 C50.03363,16.7861523 49.2217738,15.6009582 48.9571256,14.7779344 C48.6924774,13.9549106 48.968161,13.4134363 49.7841766,13.1535114 C49.5253514,12.2535549 49.7098167,11.5680877 50.3375724,11.0971099 C50.9653282,10.6261321 52.1819445,10.2604288 53.9874214,10 C55.7928983,10.2604288 57.0095146,10.6261321 57.6372703,11.0971099 C58.2650261,11.5680877 58.4494914,12.2535549 58.1906662,13.1535114 C59.0066817,13.4134363 59.2823654,13.9549106 59.0177172,14.7779344 C58.753069,15.6009582 57.9412127,16.7861523 56.5821486,18.3335164 C56.7340373,25.8248911 56.9293419,30.7352487 57.1680624,33.0645893 C57.4067829,35.3939298 57.7476508,37.7579227 58.1906662,40.1565678 C64.7636412,40.9181484 69.3986307,41.7355009 72.0956345,42.6086255 C74.7926383,43.4817501 76.8438605,44.5268955 78.249301,45.7440616 L76.6483029,50.0703294 C72.3523655,48.1718648 69.0453003,47.1022114 66.7271074,46.8613693 C64.4089144,46.6205271 62.315764,46.8702037 60.4476562,47.6103992 L60.4476562,51.6083962 C66.041514,52.4435445 69.9241734,53.12116 72.0956345,53.6412426 C74.2670956,54.1613253 76.8406238,55.0300195 79.8162191,56.2473252 L79.8162191,58.4509209 C77.9058403,59.0798783 76.6898114,59.6734139 76.1681326,60.2315277 C75.6464537,60.7896414 75.4539391,61.7030242 75.5905889,62.971676 C78.4748836,63.9273225 80.7447882,64.6375257 82.4003029,65.1022856 C84.0558175,65.5670455 86.5806642,66.2028939 89.9748428,67.0098308 C86.9601548,89.0703975 82.6403658,104.042828 77.0154756,111.927123 C71.3905854,119.811419 65.6113358,125.415325 59.6777267,128.738844 C59.4476129,133.71822 58.951926,137.909783 58.1906662,141.313532 C57.4294064,144.717282 56.0283248,148.629438 53.9874214,153.05 Z" id="Combined-Shape" fill="#E8F7FA"></path>
        </g>
        <g id="Group-3-Copy-10" transform="translate(31.000000, 3.000000)" fill="#E8F7FA">
            <polygon id="Polygon-Copy-43" points="83.8080495 12 98.8080495 33 83.8080495 54 68.8080495 33"></polygon>
            <polygon id="Polygon-Copy-47" points="49.4040248 0 64.4040248 21 49.4040248 42 34.4040248 21"></polygon>
            <polygon id="Polygon-Copy-48" points="15 12 30 33 15 54 0 33"></polygon>
        </g>
    </g>
</svg>
